svg/speaker_message.svg

<svg xmlns="http://www.w3.org/2000/svg" viewBox="0 0 24 24"><path d="M16.5 3h5c.8 0 1.5.7 1.5 1.5v3c0 .8-.7 1.5-1.5 1.5H18l-3 3V4.5c0-.8.7-1.5 1.5-1.5M3 3c-1.1 0-2 .9-2 2v14c0 1.1.9 2 2 2h8c1.1 0 2-.9 2-2V5c0-1.1-.9-2-2-2zm4 2c1.1 0 2 .9 2 2s-.9 2-2 2-2-.9-2-2 .9-2 2-2m0 6c2.2 0 4 1.8 4 4s-1.8 4-4 4-4-1.8-4-4 1.8-4 4-4m0 2c-1.1 0-2 .9-2 2s.9 2 2 2 2-.9 2-2-.9-2-2-2"/></svg>

<svg xmlns="http://www.w3.org/2000/svg" id="mdi-speaker-message" viewBox="0 0 24 24"><path d="M16.5 3H21.5C22.3 3 23 3.7 23 4.5V7.5C23 8.3 22.3 9 21.5 9H18L15 12V4.5C15 3.7 15.7 3 16.5 3M3 3C1.9 3 1 3.9 1 5V19C1 20.1 1.9 21 3 21H11C12.1 21 13 20.1 13 19V5C13 3.9 12.1 3 11 3H3M7 5C8.1 5 9 5.9 9 7S8.1 9 7 9 5 8.1 5 7 5.9 5 7 5M7 11C9.2 11 11 12.8 11 15S9.2 19 7 19 3 17.2 3 15 4.8 11 7 11M7 13C5.9 13 5 13.9 5 15S5.9 17 7 17 9 16.1 9 15 8.1 13 7 13" /></svg>
